X: 1
T:Off to the Races
R:Jig
O:Ireland
M:6/8
K:G
D|\
G3 g2e|dBG AGE|DEG AGA|BAA ABA|\
G3 g2e|dBG AGE|DEG AGA|BGG G2:|
|:efe gfe|efe gfe|efe gfe|fdB B3|\
efe gfg|agf gfe|BcB AGA|BGE E3:|
